brandFactory_export/3.Masa/Barco_3Masa.svg

<?xml version="1.0" encoding="UTF-8"?>
<svg width="24px" height="24px" viewBox="0 0 24 24" version="1.1" xmlns="http://www.w3.org/2000/svg" xmlns:xlink="http://www.w3.org/1999/xlink">
    <title>3.Masa/Barco_3Masa</title>
    <g id="Symbols" stroke="none" stroke-width="1" fill="none" fill-rule="evenodd">
        <g id="3.Masa/Barco_3Masa" fill="#5CB615" fill-rule="nonzero">
            <path d="M11.112605,2.74621849 L11.112605,3.92605042 L4.81680672,3.92605042 L4.81680672,2.74621849 C4.81680672,2.34621849 5.1394958,2.02016807 5.5394958,2.02016807 L10.389916,2.02016807 C10.789916,2.02016807 11.112605,2.34621849 11.112605,2.74621849 Z M15.0857143,18.3563025 C15.8857143,18.3563025 16.5344538,17.7008403 16.5344538,16.897479 C16.5344538,16.0941176 15.8857143,15.4386555 15.0857143,15.4386555 C14.2857143,15.4386555 13.6369748,16.0941176 13.6369748,16.897479 C13.6369748,17.7008403 14.2857143,18.3563025 15.0857143,18.3563025 Z M10.2420168,18.3563025 C11.0420168,18.3563025 11.6907563,17.7008403 11.6907563,16.897479 C11.6907563,16.0941176 11.0386555,15.4386555 10.2420168,15.4386555 C9.44201681,15.4386555 8.79327731,16.0941176 8.79327731,16.897479 C8.79327731,17.7008403 9.44537815,18.3563025 10.2420168,18.3563025 Z M5.39831933,18.3563025 C6.19831933,18.3563025 6.84705882,17.7008403 6.84705882,16.897479 C6.84705882,16.0941176 6.19831933,15.4386555 5.39831933,15.4386555 C4.59831933,15.4386555 3.94957983,16.0941176 3.94957983,16.897479 C3.94957983,17.7008403 4.60168067,18.3563025 5.39831933,18.3563025 Z M22.9344538,12.1411765 C23.3344538,12.1411765 23.6571429,12.4672269 23.6571429,12.8672269 C23.6571429,16.0605042 22.8369748,18.4571429 21.2201681,19.9932773 C19.5462185,21.5865546 17.5630252,21.7008403 17.0285714,21.7008403 C16.9512605,21.7008403 16.9042017,21.697479 16.8941176,21.697479 L2,21.697479 C0.853781513,21.697479 0.393277311,20.6453782 0.359663866,19.9394958 L0.0336134454,12.8739496 C0.0235294118,12.6756303 0.0974789916,12.4806723 0.231932773,12.3361345 C0.369747899,12.1915966 0.557983193,12.1109244 0.752941176,12.1109244 L2.36638655,12.1142857 L2.38991597,9.20336134 C2.36638655,8.95798319 2.42352941,8.62857143 2.64537815,8.35966387 C2.81344538,8.15462185 3.13613445,7.90588235 3.72436975,7.89915966 C3.8789916,7.89579832 4.2789916,7.89579832 4.81344538,7.89243697 L4.81344538,5.37815126 L11.1092437,5.37815126 L11.1092437,7.89579832 C12.5714286,7.89915966 13.707563,7.89915966 13.8386555,7.89915966 C13.892437,7.90252101 15.8823529,7.82857143 17.287395,9.18655462 C18.0470588,9.91932773 18.4638655,10.9176471 18.5714286,12.1344538 L22.9344538,12.1411765 Z M5.39831933,16.4067227 C5.66722689,16.4067227 5.88571429,16.6252101 5.88571429,16.8941176 C5.88571429,17.1630252 5.66722689,17.3815126 5.39831933,17.3815126 C5.12941176,17.3815126 4.91428571,17.1630252 4.91428571,16.8941176 C4.91428571,16.6252101 5.13277311,16.4067227 5.39831933,16.4067227 Z M10.2420168,16.4067227 C10.5109244,16.4067227 10.7260504,16.6252101 10.7260504,16.8941176 C10.7260504,17.1630252 10.507563,17.3815126 10.2420168,17.3815126 C9.97310924,17.3815126 9.75798319,17.1630252 9.75798319,16.8941176 C9.75798319,16.6252101 9.97647059,16.4067227 10.2420168,16.4067227 Z M15.0857143,16.4067227 C15.3546218,16.4067227 15.5731092,16.6252101 15.5731092,16.8941176 C15.5731092,17.1630252 15.3546218,17.3815126 15.0857143,17.3815126 C14.8168067,17.3815126 14.6016807,17.1630252 14.6016807,16.8941176 C14.6016807,16.6252101 14.8168067,16.4067227 15.0857143,16.4067227 Z" id="Barco_3Masa"></path>
        </g>
    </g>
</svg>

<svg width="24" height="24" viewBox="0 0 24 24" xmlns="http://www.w3.org/2000/svg"><path d="M11.113 2.746v1.18H4.817v-1.18c0-.4.322-.726.722-.726h4.85c.4 0 .724.326.724.726zm3.973 15.61c.8 0 1.448-.655 1.448-1.459 0-.803-.648-1.458-1.448-1.458-.8 0-1.449.655-1.449 1.458 0 .804.649 1.46 1.449 1.46zm-4.844 0c.8 0 1.449-.655 1.449-1.459 0-.803-.652-1.458-1.449-1.458-.8 0-1.449.655-1.449 1.458 0 .804.652 1.46 1.449 1.46zm-4.844 0c.8 0 1.45-.655 1.45-1.459 0-.803-.65-1.458-1.45-1.458-.8 0-1.448.655-1.448 1.458 0 .804.652 1.46 1.448 1.46zm17.536-6.215c.4 0 .723.326.723.726 0 3.194-.82 5.59-2.437 7.126-1.674 1.594-3.657 1.708-4.191 1.708-.078 0-.125-.004-.135-.004H2c-1.146 0-1.607-1.052-1.64-1.758l-.326-7.065a.72.72 0 01.72-.763l1.612.003.024-2.91a1.172 1.172 0 01.255-.844c.168-.205.491-.454 1.08-.46.154-.004.554-.004 1.088-.008V5.378h6.296v2.518c1.462.003 2.599.003 2.73.003.053.004 2.043-.07 3.448 1.288.76.732 1.177 1.73 1.284 2.947l4.363.007zM5.398 16.407a.488.488 0 010 .975.487.487 0 010-.975zm4.844 0a.487.487 0 010 .975.487.487 0 010-.975zm4.844 0a.488.488 0 010 .975.485.485 0 01-.484-.488c0-.269.215-.487.484-.487z" fill="#5CB615" fill-rule="nonzero"/></svg>
